X:1
T:Hour by Hour
T:Hour by Hour
T:William Howard Doane
T:Frances Jane (Fanny) Crosby, 1905
T:Public Domain Courtesy of the Cyber Hymnal™
T:Public Domain Courtesy of the Cyber Hymnal™
C:William Howard Doane
Z:Public Domain
Z:Courtesy of the Cyber Hymnal™
%%score ( 1 2 ) ( 3 4 )
L:1/8
Q:1/4=115
M:4/4
K:Eb
V:1 treble 
V:2 treble 
V:3 bass 
V:4 bass 
V:1
 [EG]2 [GB]2 [FA][EG][DF][_DE] | [CE]4 [EA]4 | [EG]2 [GB]2 [GB][EG][EF]E | [DF]6 z2 | %4
w: 1.~Hour by hour we trust in|Je- sus,|Hour by hour for strength we|pray;|
w: 2.~Hour by hour we hear a|warn- ing|From the spir- it- voice with-|in;|
w: 3.~Hour by hour we jour- ney|on- ward,|Hour by hour we stem the|tide;|
w: 4.~Hour by hour the heart grows|faint- er,|Hour by hour the sun- light|dies;|
 [EG]2 [GB]2 [FA][EG][DF][_DE] | [CE]4 [CA]2 [Ec][EB] | [EB]2 [EG]2 [DF]2 (EF) | [B,E]6 || %8
w: Hour by hour the sands are|drop- ping From the|glass of time a- *|way.|
w: Hour by hour we meet the|tempt- er, Hour by|hour we fall or *|win.|
w: Hour by hour we miss the|dear ones, An- chored|on the o- ther *|side.|
w: Hour by hour we near the|por- tals Of our|home be- yond the *|skies.|
"^Refrain" [EG][EB] | B2 [FB]2 B4 | [Ac][GB][EG]E [DF]2 [EG]2 | [EA][EA][Ac][Ac] [GB]2 [EG]2 | %12
w: ||||
w: We are|go- ing home|where the pure and blest In|per- fect peace with Je- sus|
w: ||||
w: ||||
 [Ec][EB][E=A][Ec] !fermata![DB]2 !fermata![_AB]2 | [GB][GB] [GB]2 [GB]2 [EG][FA] | %14
w: ||
w: free from care shall rest; Then|let us go on with a|
w: ||
w: ||
 [GB][Ac][GB][FA] [EG]3 [EG] | [FA][FA] [FA]2 [FA]2 [DF][EG] | [FA][GB][FA][EG] [DF]3 [DF] | %17
w: |||
w: hap- py, hap- py song, Then|let us go on with a|hap- py, hap- py song; O|
w: |||
w: |||
 [EG]2 [GB]2 [Ge]3 [Ge] | [Ae]2 [Ac]2 [Ac]4 | [GB]2 [EG]2 [DF]2 (EF) | [B,E]6 z2 |] %21
w: ||||
w: soon we’ll rest on|yon- der shore,|Rest for- ev- er- *|more.|
w: ||||
w: ||||
V:2
 x8 | x8 | x7 E | x8 | x8 | x8 | x6 C2 | x6 || x2 | (EE) x (E F G2) x | x3 E x4 | x8 | x8 | x8 | %14
 x8 | x8 | x8 | x8 | x8 | x6 B,2 | x8 |] %21
V:3
 [E,B,]2 [E,E]2 [D,B,][E,B,][F,B,][G,B,] | A,4 [A,,C]4 | [E,B,]2 [E,E]2 [E,E][E,B,][A,C][=A,C] | %3
w: ~ ~ ~ ~ ~ ~|~ ~|~ ~ ~ ~ ~ ~|
 B,6 z2 | [E,B,]2 [E,E]2 [D,B,][E,B,][F,B,][G,B,] | A,4 [A,,A,]2 [A,,A,][A,,A,] | %6
w: ~|~ ~ ~ ~ ~ ~|~ ~ ~ ~|
 [B,,G,]2 [B,,B,]2 [B,,A,]2 (G,A,) | [E,G,]6 || [E,B,][E,G,] | %9
w: ~ ~ ~ ~ *|~|We are|
 [B,,F,][B,,G,] [B,,A,]2 [E,G,][E,A,] [E,B,]2 | [E,E][E,E][E,B,][E,G,] [B,,B,]2 [E,_D]2 | %11
w: go- ing home, go- ing home,||
 [A,C][A,C][A,E][A,E] [E,E]2 [E,B,]2 | %12
w: |
 [F,=A,][F,B,][F,C][F,A,] !fermata![B,,B,]2 !fermata![B,,D]2 | %13
w: |
 [E,E][E,E] [E,E]2 [E,E]2 [E,B,][E,B,] | [E,E][E,E][E,E][E,B,] [E,B,]3 [E,B,] | %15
w: ||
 [B,,B,][B,,B,] [B,,B,]2 [B,,B,]2 [B,,B,][B,,B,] | [B,,B,][B,,B,][B,,B,][B,,B,] [B,,B,]3 [B,,B,] | %17
w: ||
 [E,B,]2 [E,E]2 [E,E]3 [E,_D] | [A,C]2 [A,,A,E]2 [A,,E]4 | [B,,E]2 [B,,B,]2 [B,,A,]2 (G,A,) | %20
w: |||
 [E,G,]6 z2 |] %21
w: |
V:4
 x8 | A,4 x4 | x8 | B,6 x2 | x8 | A,4 x4 | x6 B,,2 | x6 || x2 | x8 | x8 | x8 | x8 | x8 | x8 | x8 | %16
 x8 | x8 | x8 | x6 B,,2 | x8 |] %21

